X:749
T:Bread Street
O:england
M:4/4
L:1/8
C:Taz Tarry
S:Copyright B.Tarry 1992
R:Reel
K:D
(3sABcs|dcde fdAF|GABGD2D2|FAGB ABcA|cdef g2(3sABcs|
dcde fdAF|GABG D2D2|FAGB ABcA|e2dcd2:|
D2|DEFA AFED|FGAB A2A2|cdef gfed|edcB AGFE|
DEFA AFED|FGAB A2A2|cdef gfed|e2dcd2:|
